!!!COM: Beethoven
!!!OTL: Six Variations on an Original Theme
!!!Variation: Variation 3 a
**function	**harm	**kern	**kern
*M6/8	*M6/8	*staff1	*staff2
*D:	*D:	*clefG2	*clefF4
*tb8	*	*k[f#c#]	*k[f#c#]
*	*	*M6/8	*M6/8
*	*	*D:	*D:
=-	=-	=	=
*	*	*	*^
2.T	2.I	(8ff#L 8aa	8F#L	4.D
.	.	8ee 8gg	8d	.
.	.	8ddJ) 8ff#	8AJ	.
.	.	8dd'L 8ff#'	8F#L	4.D
.	.	(8dd 8ff#	8d	.
.	.	8eeJ 8gg	8AJ	.
=	=	=50	=50	=50
2.T	2.I	8ff#L 8aa	8F#L	4.D
.	.	8ee 8gg	8d	.
.	.	8ddJ) 8ff#	8AJ	.
.	.	8dd'L 8ff#'	(8DL	4.D
.	.	(8ddd 8fff#	8E	.
.	.	8ccc#J 8eee	8F#J	.
=	=	=51	=51	=51
4.T	4.IV	8bbL 8ddd	8GL	4.D
.	.	8aa 8ccc#	8A	.
.	.	8ggJ 8bb	8BJ)	.
4.@7T	4.vii@7	8ff#L 8aa	8c#L	8DL
.	.	8gg 8bb	8c#	8D
.	.	8eeJ) 8gg	8c#J	8DJ
=	=	=52	=52	=52
2.T	2.I	(8ddL 8ff#	8dL	8DL
.	.	8ee 8gg	8d	8D
.	.	8ee#J 8gg#	8dJ	8DJ
.	.	8ggL 8bb	8dL	8DL
.	.	8ff#) 8aa	8d	8D
.	.	8ff#'J 8aa'	8dJ	8DJ
=	=	=53	=53	=53
2.T	2.I	(8ff#L 8aa	8F#L	4.D
.	.	8ee 8gg	8d	.
.	.	8ddJ) 8ff#	8AJ	.
.	.	8dd'L 8ff#'	8F#L	4.D
.	.	(8dd 8ff#	8d	.
.	.	8eeJ 8gg	8AJ	.
*	*	*	*v	*v
=	=	=54	=54
*	*	*	*^
2.T	2.I	8ff#L 8aa	8F#L	4.D
.	.	8ee 8gg	8d	.
.	.	8ddJ) 8ff#	8AJ	.
.	.	8dd'L 8ff#'	4.r	(8DL
.	.	(8ddd 8fff#	.	8E
.	.	8ccc#J 8eee	.	8F#J)
=	=	=55	=55	=55
4.P	4.IV	8bbL 8ddd	2.r	8GL
*	*	*	*clefG2	*clefG2
.	.	8ee 8ccc#	.	8f#
.	.	8ddJ) 8bb	.	8gJ
4D	4V6	(8ddL 8bb	.	8eL
.	.	8ee 8ccc#	.	8c#
8D	8V/vi	8cc#J) 8aa#	.	8f#J
=	=	=56	=56	=56
4.T	4.vi	(4ee 4ccc#	8dL	4.B
.	.	.	8b	.
.	.	8dd) 8bb	8f#J	.
4.T	4.V6	8r	8dL	4.B
.	.	(8ddL 8bb	8b	.
.	.	8eeJ 8ccc#	8f#J	.
*	*	*	*v	*v
=	=	=57:|!|:	=57:|!|:
*-	*-	*-	*-
